X: 151
T: Mechol Ha Shnayim
C: Moshiko Halevy 1976
O: Israel
M: 4/4
L: 1/8
K: Gmin
Q: 1/4=160
%%MIDI drum d2z2d2d2 35 35 35
%%MIDI drumon
.c2 c.c2 .B.A.G |.d.e.d.c2 .B.A.G |ABcB ABcd  |d2 ed2 z3|
D2 E^F2 GAF|G2 AB2 AG2|D2 E^F2 GAF|G2 AG2 z3|
c2 cc2 BAG |dedc2 BAG |ABcB ABcd  |d2 ed2 z3|



